svgs/light/person-biking.svg

<svg xmlns="http://www.w3.org/2000/svg" viewBox="0 0 640 512"><!-- Font Awesome Pro 6.0.0-alpha2 by @fontawesome - https://fontawesome.com License - https://fontawesome.com/license (Commercial License) --><path d="M250.719 222.578L311.891 171.594C317.266 167.047 325.156 166.656 331 170.562L407.125 221.312C409.75 223.062 412.844 224 416 224H480C488.844 224 496 216.844 496 208S488.844 192 480 192H420.844L348.75 143.938C331.188 132.188 307.625 133.469 291.391 147L230.234 197.984C222.406 204.5 218.219 214.078 218.75 224.266C219.297 234.453 224.469 243.531 232.953 249.203L304 296.562V416C304 424.844 311.156 432 320 432S336 424.844 336 416V288C336 282.656 333.328 277.656 328.875 274.688L250.719 222.578ZM384 128C419.346 128 448 99.346 448 64C448 28.652 419.346 0 384 0S320 28.652 320 64C320 99.346 348.654 128 384 128ZM384 32C401.645 32 416 46.355 416 64S401.645 96 384 96S352 81.645 352 64S366.355 32 384 32ZM128 256C57.309 256 0 313.307 0 384C0 454.691 57.309 512 128 512C198.693 512 256 454.691 256 384C256 313.307 198.693 256 128 256ZM128 480C75.064 480 32 436.934 32 384C32 331.064 75.064 288 128 288S224 331.064 224 384C224 436.934 180.936 480 128 480ZM512 256C441.309 256 384 313.307 384 384C384 454.691 441.309 512 512 512C582.693 512 640 454.691 640 384C640 313.307 582.693 256 512 256ZM512 480C459.064 480 416 436.934 416 384C416 331.064 459.064 288 512 288S608 331.064 608 384C608 436.934 564.936 480 512 480Z"/></svg>

<svg xmlns="http://www.w3.org/2000/svg" viewBox="0 0 640 512"><!--! Font Awesome Pro 6.0.0-alpha3 by @fontawesome - https://fontawesome.com License - https://fontawesome.com/license (Commercial License) --><path d="M250.7 222.6L311.9 171.6c5.375-4.547 13.27-4.938 19.11-1.031l76.13 50.75C409.8 223.1 412.8 224 416 224h64c8.844 0 16-7.156 16-16S488.8 192 480 192h-59.16l-72.09-48.06C331.2 132.2 307.6 133.5 291.4 147L230.2 197.1C222.4 204.5 218.2 214.1 218.8 224.3c.5469 10.19 5.719 19.27 14.2 24.94L304 296.6V416c0 8.844 7.156 16 16 16s16-7.156 16-16V288c0-5.344-2.672-10.34-7.125-13.31L250.7 222.6zM384 128c35.35 0 64-28.65 64-64c0-35.35-28.65-64-64-64s-64 28.65-64 64C320 99.35 348.7 128 384 128zM384 32c17.64 0 32 14.36 32 32s-14.36 32-32 32s-32-14.36-32-32S366.4 32 384 32zM128 256c-70.69 0-128 57.31-128 128c0 70.69 57.31 128 128 128c70.69 0 128-57.31 128-128C256 313.3 198.7 256 128 256zM128 480c-52.94 0-96-43.07-96-96c0-52.94 43.06-96 96-96s96 43.06 96 96C224 436.9 180.9 480 128 480zM512 256c-70.69 0-128 57.31-128 128c0 70.69 57.31 128 128 128c70.69 0 128-57.31 128-128C640 313.3 582.7 256 512 256zM512 480c-52.94 0-96-43.07-96-96c0-52.94 43.06-96 96-96s96 43.06 96 96C608 436.9 564.9 480 512 480z"/></svg>
